X:1
T:Yemen
C:François Champs
R:Reel
K:G
M:2/2
Q:1/4=140
% partie A
|: "C" c2dc ecdc | "G" BGGA BGAB | "D" A2FG AcBA | BGGA BGAB
| "C" c2dc ecdc | "G" BgdB gdB2 | "D" ADFG AcBA | BGGA BGAB :|
% partie B
|: "G" GBBB GBdB | "D/F#" ADFG AFGA | "Em" EGAG EGBG | ADFG AcBA :|
